X:65
T:Auretti's Dutch Skipper
N:England c.1756
Q:1/4=120
M:6/8
L:1/8
K:C
G| "C"cGc edc | "G"dBG f3 | "C"edc "G"B/c/dB | cGE "C"C2 G |
"C"cBc edc | "G"dBG def | "C"edc "G"GcB | "C"c3 c2 :: G |
"C"ceg gec | "Dm(F)"dfa a2 G | "C"ceg gec | "G"Bdd d2 G | "C"ceg gec |
"F"dc'b c'2 f | "C"edc "G"GcB | "C"cGE C2 z :|
